X:38
T:Heart's Ease. (p)1651.PLFD.038
M:6/4
L:1/4
Q:3/4=90
S:Playford, Dancing Master,1st Ed.,1651.
O:England
H:1651.
Z:Chris Partington.
K:F
G|G>AB A2 G|^F2 G A2 D|G2 A B2 c|d3-d2|
|:d|ABc c>dc|f2 c c2 A|B2 A B2 c|d3-d2 d|
c2 B A>Bc|B2 A dAB|A2 G ^F>EF|G3 G2:|
